X:918
T:Davy Maguire's
R:reel
D:Harry Bradley
Z:id:hn-reel-918
M:C|
L:1/8
K:D
fdAd ~f3a | geBe gbag | fdAd ~f3e | defd efdg |
fdAd ~f3a | gebg eg~g2 | fdAd ~f3e | defd efdf ||
a2ag fgaf | efgB eg~g2 | ~a3g fdec | defd efd2 |
abag fgaf | efgB eg~g2 | ~a3g fdec | defd efde || 

